li/weather-moon-waning-gibbous-1.svg

<svg role="img" focusable="false" aria-hidden="true" xmlns="http://www.w3.org/2000/svg" viewBox="0 0 14 14" height="1em" width="1em">
  <path d="m 1.030767,6.997323 c 0,0.653279 0.1017403,1.28514 0.2998661,1.895582 0.1981259,0.610442 0.4872825,1.161981 0.8567604,1.654618 0.3694779,0.492638 0.8032129,0.921018 1.2958501,1.29585 0.4926372,0.374833 1.0441767,0.658635 1.6546184,0.856761 C 5.7483038,12.89826 6.3801646,13 7.0334444,13 9.7268855,12.250335 11.070927,10.247657 11.070927,6.991968 c 0,-0.631861 -0.07497,-1.231593 -0.2249,-1.804552 C 10.696095,4.614458 10.497969,4.111111 10.240941,3.672021 9.9839135,3.232932 9.6840475,2.831325 9.3413425,2.472557 8.998638,2.113788 8.623806,1.808568 8.238264,1.572959 7.852721,1.337349 7.451115,1.139224 7.0280896,1 6.2141673,1 5.4323734,1.160643 4.6880629,1.476573 3.9437523,1.792503 3.322601,2.220884 2.7871258,2.756359 2.2516505,3.291834 1.8232703,3.92905 1.50734,4.668005 1.1914096,5.406961 1.030767,6.1834 1.030767,6.997323 Z"/>
</svg>

<svg aria-hidden="true" xmlns="http://www.w3.org/2000/svg" viewBox="0 0 14 14" height="1em" width="1em">
  <path d="M1.03 6.997c0 .654.103 1.285.3 1.896.199.61.488 1.162.857 1.655.37.492.804.92 1.296 1.295a5.522 5.522 0 0 0 1.655.857c.61.198 1.242.3 1.895.3 2.694-.75 4.038-2.752 4.038-6.008a7.09 7.09 0 0 0-.225-1.805 5.971 5.971 0 0 0-.605-1.515 6.44 6.44 0 0 0-.9-1.2 5.532 5.532 0 0 0-1.103-.899A5.812 5.812 0 0 0 7.028 1c-.814 0-1.596.16-2.34.477a5.914 5.914 0 0 0-1.9 1.28 6.021 6.021 0 0 0-1.28 1.911 5.867 5.867 0 0 0-.477 2.33Z"/>
</svg>
